X:110
T: MEI MUTTER MAG MI NET, UND KEIN SCHATZ HAN I NET
N: Z0110
O: Europa, Mitteleuropa, Deutschland, Schwaben
R: Sagen - Lied, Romanze, Tod
M: 3/8
L: 1/16
K: B
d2d2d2 | d3cc2 | e2e2e2 | e3dd2
f2gfed | g3gf2 | d2d2fe | c4z2
c2cgfe | e3dd2 | g2b2ag | f3ed2
B2A2ce | d4z2 | f2fgfe | d4z2

